X:1
T:Kelveden, 87.87.47
T:Kelveden, 87.87.47
T:William Blow, Jr., 1867
T:Public Domain Courtesy of the Cyber Hymnal™
C:William Blow, Jr., 1867
Z:Public Domain
Z:Courtesy of the Cyber Hymnal™
%%score ( 1 2 ) ( 3 4 )
L:1/8
Q:1/4=110
M:4/4
K:A
V:1 treble 
V:2 treble 
V:3 bass 
V:4 bass 
V:1
 [CE]2 [EA]2 [DA]2 [DG]2 | [DF]2 [DG]2 [DF]2 [DE]2 | [DE]2 [Ed]2 [Ad]2 [Ac]2 | %3
 [Fc]2 [FB]2 (B2 E2) | E2 [CE]2 [DA]2 [EA]2 | [FB]2 [Ec]2 [Fe]2 [Fd]2 | [Ac]2 [EA]2 [Ad]2 [Ac]2 | %7
 [Gc]2 [GB]2 A4 | [Ec]2 [^Ec]2 [Fc]2 [=EF]2 | [Dd]2 [Ec]2 [FB]2 F2 | [EA]4 [EG]4 | [EA]8 |] %12
V:2
 x8 | x8 | x8 | x4 E4 | x8 | x8 | x8 | x4 A4 | x8 | x6 F2 | x8 | x8 |] %12
V:3
 A,2 [A,C]2 [E,B,]2 [E,B,]2 | [E,A,]2 [E,B,]2 [E,A,]2 [E,G,]2 | [F,A,]2 [G,B,]2 [A,E]2 [A,E]2 | %3
 [A,^D]2 [A,D]2 [G,=D]4 | [A,C]2 [G,A,]2 [F,A,]2 [E,C]2 | [D,D]2 [C,^A,]2 [B,,A,]2 [B,,B,]2 | %6
 [E,C]2 [E,C]2 [E,F]2 [E,E]2 | [E,E]2 [E,D]2 [A,C]4 | [A,C]2 [G,B,]2 [F,A,]2 [F,^A,]2 | %9
 [B,,B,]2 [C,^A,]2 [D,B,]2 [^D,=C]2 | C4 B,4 | [A,,C]8 |] %12
V:4
 A,2 x6 | x8 | x8 | x8 | x8 | x8 | x8 | x8 | x8 | x8 | (E,2 E,2) (E,2 E,2) | x8 |] %12

